exports/global-smallpox-cases_v2_850x600.svg

<svg xmlns="http://www.w3.org/2000/svg" version="1.1" style="background-color:#fff;-webkit-font-smoothing:antialiased" width="850" height="600" font-family="'Helvetica Neue',Helvetica,Arial,sans-serif" font-size="18" text-rendering="optimizeLegibility"><g class="ChartTab"><g class="HeaderView"><g opacity=".8" transform="matrix(.27 0 0 .27 778 15)"><a xmlns:xlink="http://www.w3.org/1999/xlink" xlink:href="https://ourworldindata.org" target="_blank"><g><path fill="#1B2543" d="M0 0h211.2v130.1H0z"/><path fill="#E63912" d="M0 112.2h211.2v17.9H0z"/><g><path fill="none" d="M1.2 12.3h210.2v99.2H1.2z"/><path fill="#FFF" d="M37.8 32.2c0 12.7-7.7 19.4-17.1 19.4-9.7 0-16.6-7.5-16.6-18.7 0-11.7 7.3-19.3 17.1-19.3 10.1.1 16.6 7.7 16.6 18.6zm-28.6.6c0 7.9 4.3 14.9 11.8 14.9 7.5 0 11.8-6.9 11.8-15.3 0-7.3-3.8-14.9-11.8-14.9-7.9 0-11.8 7.3-11.8 15.3zM62.7 43.8c0 2.7.1 5.1.2 7.2h-4.3l-.3-4.3h-.1c-1.3 2.1-4 4.9-8.8 4.9-4.2 0-9.1-2.3-9.1-11.6V24.6h4.8v14.6c0 5 1.5 8.4 5.9 8.4 3.2 0 5.5-2.2 6.3-4.4.3-.7.4-1.6.4-2.5V24.6h4.8v19.2zM67.3 32.8c0-3.1-.1-5.8-.2-8.2h4.2l.2 5.2h.2c1.2-3.5 4.1-5.8 7.3-5.8.5 0 .9.1 1.4.2v4.5c-.5-.1-1-.2-1.6-.2-3.4 0-5.8 2.6-6.5 6.2-.1.7-.2 1.4-.2 2.2V51h-4.8V32.8zM95.4 51L86 14.2h5l4.4 18.6c1.1 4.6 2.1 9.2 2.7 12.7h.1c.6-3.7 1.8-8 3-12.8l4.9-18.5h5l4.5 18.7c1 4.4 2 8.7 2.6 12.6h.1c.8-4 1.8-8.1 3-12.7l4.9-18.5h4.9L120.6 51h-5L111 31.9c-1.1-4.7-1.9-8.3-2.4-12h-.1c-.7 3.7-1.5 7.3-2.8 12L100.4 51h-5zM154.9 37.6c0 9.8-6.8 14-13.2 14-7.2 0-12.7-5.2-12.7-13.6 0-8.8 5.8-14 13.1-14 7.7 0 12.8 5.5 12.8 13.6zm-21 .3c0 5.8 3.3 10.1 8 10.1 4.6 0 8-4.3 8-10.3 0-4.5-2.2-10.1-7.9-10.1s-8.1 5.2-8.1 10.3zM158.2 32.8c0-3.1-.1-5.8-.2-8.2h4.2l.2 5.2h.2c1.2-3.5 4.1-5.8 7.3-5.8.5 0 .9.1 1.4.2v4.5c-.5-.1-1-.2-1.6-.2-3.4 0-5.8 2.6-6.5 6.2-.1.7-.2 1.4-.2 2.2V51h-4.8V32.8zM173.5 12.3h4.8V51h-4.8V12.3zM206.5 12.3v31.9c0 2.3.1 5 .2 6.8h-4.3l-.2-4.6h-.2c-1.5 2.9-4.7 5.2-9 5.2-6.4 0-11.3-5.4-11.3-13.4-.1-8.8 5.4-14.2 11.9-14.2 4 0 6.8 1.9 8 4h.1V12.3h4.8zm-4.8 23.1c0-.6-.1-1.4-.2-2a7 7 0 00-6.9-5.6c-5 0-7.9 4.4-7.9 10.2 0 5.3 2.6 9.8 7.8 9.8 3.2 0 6.2-2.1 7.1-5.7.2-.7.2-1.3.2-2.1v-4.6zM42.8 64c.1 1.6-1.1 2.9-3.1 2.9-1.7 0-2.9-1.3-2.9-2.9 0-1.7 1.3-3 3-3 1.9 0 3 1.3 3 3zm-5.4 33.8V71.4h4.8v26.4h-4.8zM47.5 78.6c0-2.7-.1-5-.2-7.1h4.3l.3 4.4h.1c1.3-2.5 4.4-5 8.8-5 3.7 0 9.4 2.2 9.4 11.2v15.8h-4.8V82.6c0-4.3-1.6-7.8-6.1-7.8-3.2 0-5.6 2.2-6.5 4.9-.2.6-.3 1.4-.3 2.2v15.9h-4.8V78.6zM84 61.6c2.9-.4 6.3-.8 10.1-.8 6.8 0 11.7 1.6 14.9 4.6 3.3 3 5.2 7.3 5.2 13.2 0 6-1.9 10.9-5.3 14.3-3.4 3.4-9.1 5.3-16.3 5.3-3.4 0-6.2-.2-8.6-.4V61.6zm4.8 32.5c1.2.2 3 .3 4.8.3 10.2 0 15.7-5.7 15.7-15.6.1-8.7-4.9-14.2-14.9-14.2-2.5 0-4.3.2-5.6.5v29zM132.1 97.8l-.4-3.3h-.2a9.79 9.79 0 01-8.1 3.9c-5.4 0-8.1-3.8-8.1-7.6 0-6.4 5.7-9.9 15.9-9.8v-.5c0-2.2-.6-6.1-6-6.1-2.5 0-5 .8-6.9 2l-1.1-3.2c2.2-1.4 5.4-2.3 8.7-2.3 8.1 0 10.1 5.5 10.1 10.8v9.9c0 2.3.1 4.5.4 6.3h-4.3zm-.7-13.4c-5.3-.1-11.2.8-11.2 5.9 0 3.1 2.1 4.6 4.5 4.6 3.4 0 5.6-2.2 6.4-4.4.2-.5.3-1 .3-1.5v-4.6zM146.6 63.9v7.6h6.9v3.7h-6.9v14.2c0 3.3.9 5.1 3.6 5.1 1.3 0 2.2-.2 2.8-.3l.2 3.6c-.9.4-2.4.7-4.3.7-2.2 0-4-.7-5.2-2-1.4-1.4-1.9-3.8-1.9-6.9V75.1h-4.1v-3.7h4.1v-6.3l4.8-1.2zM171.4 97.8l-.4-3.3h-.2a9.79 9.79 0 01-8.1 3.9c-5.4 0-8.1-3.8-8.1-7.6 0-6.4 5.7-9.9 15.9-9.8v-.5c0-2.2-.6-6.1-6-6.1-2.5 0-5 .8-6.9 2l-1.1-3.2c2.2-1.4 5.4-2.3 8.7-2.3 8.1 0 10.1 5.5 10.1 10.8v9.9c0 2.3.1 4.5.4 6.3h-4.3zm-.7-13.4c-5.3-.1-11.2.8-11.2 5.9 0 3.1 2.1 4.6 4.5 4.6 3.4 0 5.6-2.2 6.4-4.4.2-.5.3-1 .3-1.5v-4.6z"/></g></g></a></g><a href="https://ourworldindata.org/grapher/global-smallpox-cases" target="_blank"><text font-size="25.2" x="15" y="35.2" fill="#555"><tspan x="15" y="35.16">Global number of reported smallpox cases (1920-2010)</tspan></text></a></g><g class="StackedArea"><defs><clipPath id="a"><path d="M78.97 0h820v973h-820z"/></clipPath></defs><g class="AxisBoxView"><g class="HorizontalAxis" fill="#666" text-anchor="middle" font-size="16.2"><text x="79" y="556.5">1920</text><text x="221.8" y="556.5">1940</text><text x="364.7" y="556.5">1960</text><text x="507.6" y="556.5">1980</text><text x="650.5" y="556.5">2000</text><text x="764.8" y="556.5">2016</text></g><g class="VerticalAxis" fill="#666" dominant-baseline="middle" text-anchor="end" font-size="16.2"><text x="73.97" y="535.3">0</text><text x="73.97" y="461.8">100,000</text><text x="73.97" y="388.3">200,000</text><text x="73.97" y="314.7">300,000</text><text x="73.97" y="241.2">400,000</text><text x="73.97" y="167.7">500,000</text><text x="73.97" y="94.2">600,000</text></g><g class="AxisGridLines"><path stroke="#ccc" d="M78.97 535.3h685.79"/><path stroke="#ddd" stroke-dasharray="3,2" d="M78.97 461.8h685.79M78.97 388.3h685.79M78.97 314.7h685.79M78.97 241.2h685.79M78.97 167.7h685.79M78.97 94.2h685.79"/></g></g><g clip-path="url(#a)"><g class="HeightedLegend clickable"><g class="legendMark"><text font-size="13.5" x="769.8" y="539.3" fill="#000004"><tspan x="769.76" y="539.35">World</tspan></text></g></g><g class="Areas"><path d="M79 240.2l7.1 71.7 7.2 83.6 7.1 11.3 7.1-8.5 7.2-72.4 7.1-28.9 7.2-2.3 7.1 40.2 7.2 3.9 7.1-68.6 7.1 130.7 7.2-20.9 7.1-86 7.2.6 7.1-2.8 7.2 49.7 7.1 84.1 7.2 3.8 7.1-31.1 7.1-36.4 7.2 29.4 7.1 52.5 7.2-63.2 7.1-144.9 7.2 1.2 7.1 75.8 7.1 102.5 7.2 1.1L286.1 70l7.2 152.1 7.1-94.7 7.2 285.1 7.1 53.6 7.2-3.8 7.1 5.5 7.1-3.1 7.2-44.6 7.1-91 7.2 135.4 7.1 21.4 7.2-17.2 7.1-6 7.1-25.6 7.2 42.2 7.1-26.6 7.2 14.4 7.1-28.6 7.2 38 7.1 18.9 7.2 15.1 7.1-14 7.1-9.1 7.2-52 7.1-60.7 7.2 146.4 7.1 13.5 7.2-1.7 7.1 2.4H764.8 78.97" fill="#000004" fill-opacity=".7" class="World_0-area"/><path stroke-linecap="round" d="M79 240.2l7.1 71.7 7.2 83.6 7.1 11.3 7.1-8.5 7.2-72.4 7.1-28.9 7.2-2.3 7.1 40.2 7.2 3.9 7.1-68.6 7.1 130.7 7.2-20.9 7.1-86 7.2.6 7.1-2.8 7.2 49.7 7.1 84.1 7.2 3.8 7.1-31.1 7.1-36.4 7.2 29.4 7.1 52.5 7.2-63.2 7.1-144.9 7.2 1.2 7.1 75.8 7.1 102.5 7.2 1.1L286.1 70l7.2 152.1 7.1-94.7 7.2 285.1 7.1 53.6 7.2-3.8 7.1 5.5 7.1-3.1 7.2-44.6 7.1-91 7.2 135.4 7.1 21.4 7.2-17.2 7.1-6 7.1-25.6 7.2 42.2 7.1-26.6 7.2 14.4 7.1-28.6 7.2 38 7.1 18.9 7.2 15.1 7.1-14 7.1-9.1 7.2-52 7.1-60.7 7.2 146.4 7.1 13.5 7.2-1.7 7.1 2.4H764.8" stroke="#000003" stroke-opacity=".7" stroke-width=".5" fill="none" class="World_0-border"/></g></g></g><g class="SourcesFooter" fill="#777"><g class="clickable" fill="#777"><text font-size="12.6" x="15" y="581.6"><tspan x="15" y="581.58">Source: World Health Organization (2011)</tspan></text></g><text font-size="12.6" x="775.4" y="581.6"><tspan x="775.4" y="581.58"><a class="cclogo" href="http://creativecommons.org/licenses/by-sa/4.0/deed.en_US" target="_blank" fill="#777">CC BY-SA</a></tspan></text></g></g></svg>

<svg xmlns="http://www.w3.org/2000/svg" version="1.1" style="font-family: 'Helvetica Neue', Helvetica, Arial, sans-serif; font-size: 18px; background-color: white; text-rendering: optimizeLegibility; -webkit-font-smoothing: antialiased;" width="850" height="600"><g class="ChartTab"><g class="HeaderView"><g opacity="0.8" transform="translate(778, 15) scale(0.27)"><a xmlns:xlink="http://www.w3.org/1999/xlink" xlink:href="https://ourworldindata.org" target="_blank"><g><rect x="0" y="0" fill="#1B2543" width="211.2" height="130.1"/><rect x="0" y="112.2" fill="#E63912" width="211.2" height="17.9"/><g><rect x="1.2" y="12.3" fill="none" width="210.2" height="99.2"/><path fill="#FFFFFF" d="M37.8,32.2c0,12.7-7.7,19.4-17.1,19.4c-9.7,0-16.6-7.5-16.6-18.7c0-11.7,7.3-19.3,17.1-19.3 C31.3,13.7,37.8,21.3,37.8,32.2z M9.2,32.8c0,7.9,4.3,14.9,11.8,14.9c7.5,0,11.8-6.9,11.8-15.3c0-7.3-3.8-14.9-11.8-14.9 C13.1,17.5,9.2,24.8,9.2,32.8z"/><path fill="#FFFFFF" d="M62.7,43.8c0,2.7,0.1,5.1,0.2,7.2h-4.3l-0.3-4.3h-0.1c-1.3,2.1-4,4.9-8.8,4.9c-4.2,0-9.1-2.3-9.1-11.6 V24.6h4.8v14.6c0,5,1.5,8.4,5.9,8.4c3.2,0,5.5-2.2,6.3-4.4c0.3-0.7,0.4-1.6,0.4-2.5V24.6h4.8V43.8z"/><path fill="#FFFFFF" d="M67.3,32.8c0-3.1-0.1-5.8-0.2-8.2h4.2l0.2,5.2h0.2c1.2-3.5,4.1-5.8,7.3-5.8c0.5,0,0.9,0.1,1.4,0.2v4.5 c-0.5-0.1-1-0.2-1.6-0.2c-3.4,0-5.8,2.6-6.5,6.2c-0.1,0.7-0.2,1.4-0.2,2.2V51h-4.8V32.8z"/><path fill="#FFFFFF" d="M95.4,51l-9.4-36.8h5l4.4,18.6c1.1,4.6,2.1,9.2,2.7,12.7h0.1c0.6-3.7,1.8-8,3-12.8l4.9-18.5h5l4.5,18.7 c1,4.4,2,8.7,2.6,12.6h0.1c0.8-4,1.8-8.1,3-12.7l4.9-18.5h4.9L120.6,51h-5L111,31.9c-1.1-4.7-1.9-8.3-2.4-12h-0.1 c-0.7,3.7-1.5,7.3-2.8,12L100.4,51H95.4z"/><path fill="#FFFFFF" d="M154.9,37.6c0,9.8-6.8,14-13.2,14c-7.2,0-12.7-5.2-12.7-13.6c0-8.8,5.8-14,13.1-14 C149.8,24,154.9,29.5,154.9,37.6z M133.9,37.9c0,5.8,3.3,10.1,8,10.1c4.6,0,8-4.3,8-10.3c0-4.5-2.2-10.1-7.9-10.1 C136.3,27.6,133.9,32.8,133.9,37.9z"/><path fill="#FFFFFF" d="M158.2,32.8c0-3.1-0.1-5.8-0.2-8.2h4.2l0.2,5.2h0.2c1.2-3.5,4.1-5.8,7.3-5.8c0.5,0,0.9,0.1,1.4,0.2v4.5 c-0.5-0.1-1-0.2-1.6-0.2c-3.4,0-5.8,2.6-6.5,6.2c-0.1,0.7-0.2,1.4-0.2,2.2V51h-4.8V32.8z"/><path fill="#FFFFFF" d="M173.5,12.3h4.8V51h-4.8V12.3z"/><path fill="#FFFFFF" d="M206.5,12.3v31.9c0,2.3,0.1,5,0.2,6.8h-4.3l-0.2-4.6H202c-1.5,2.9-4.7,5.2-9,5.2 c-6.4,0-11.3-5.4-11.3-13.4c-0.1-8.8,5.4-14.2,11.9-14.2c4,0,6.8,1.9,8,4h0.1V12.3H206.5z M201.7,35.4c0-0.6-0.1-1.4-0.2-2 c-0.7-3.1-3.3-5.6-6.9-5.6c-5,0-7.9,4.4-7.9,10.2c0,5.3,2.6,9.8,7.8,9.8c3.2,0,6.2-2.1,7.1-5.7c0.2-0.7,0.2-1.3,0.2-2.1V35.4z"/><path fill="#FFFFFF" d="M42.8,64c0.1,1.6-1.1,2.9-3.1,2.9c-1.7,0-2.9-1.3-2.9-2.9c0-1.7,1.3-3,3-3C41.7,61,42.8,62.3,42.8,64z M37.4,97.8V71.4h4.8v26.4H37.4z"/><path fill="#FFFFFF" d="M47.5,78.6c0-2.7-0.1-5-0.2-7.1h4.3l0.3,4.4h0.1c1.3-2.5,4.4-5,8.8-5c3.7,0,9.4,2.2,9.4,11.2v15.8h-4.8 V82.6c0-4.3-1.6-7.8-6.1-7.8c-3.2,0-5.6,2.2-6.5,4.9c-0.2,0.6-0.3,1.4-0.3,2.2v15.9h-4.8V78.6z"/><path fill="#FFFFFF" d="M84,61.6c2.9-0.4,6.3-0.8,10.1-0.8c6.8,0,11.7,1.6,14.9,4.6c3.3,3,5.2,7.3,5.2,13.2c0,6-1.9,10.9-5.3,14.3 c-3.4,3.4-9.1,5.3-16.3,5.3c-3.4,0-6.2-0.2-8.6-0.4V61.6z M88.8,94.1c1.2,0.2,3,0.3,4.8,0.3c10.2,0,15.7-5.7,15.7-15.6 c0.1-8.7-4.9-14.2-14.9-14.2c-2.5,0-4.3,0.2-5.6,0.5V94.1z"/><path fill="#FFFFFF" d="M132.1,97.8l-0.4-3.3h-0.2c-1.5,2.1-4.3,3.9-8.1,3.9c-5.4,0-8.1-3.8-8.1-7.6c0-6.4,5.7-9.9,15.9-9.8v-0.5 c0-2.2-0.6-6.1-6-6.1c-2.5,0-5,0.8-6.9,2l-1.1-3.2c2.2-1.4,5.4-2.3,8.7-2.3c8.1,0,10.1,5.5,10.1,10.8v9.9c0,2.3,0.1,4.5,0.4,6.3 H132.1z M131.4,84.4c-5.3-0.1-11.2,0.8-11.2,5.9c0,3.1,2.1,4.6,4.5,4.6c3.4,0,5.6-2.2,6.4-4.4c0.2-0.5,0.3-1,0.3-1.5V84.4z"/><path fill="#FFFFFF" d="M146.6,63.9v7.6h6.9v3.7h-6.9v14.2c0,3.3,0.9,5.1,3.6,5.1c1.3,0,2.2-0.2,2.8-0.3l0.2,3.6 c-0.9,0.4-2.4,0.7-4.3,0.7c-2.2,0-4-0.7-5.2-2c-1.4-1.4-1.9-3.8-1.9-6.9V75.1h-4.1v-3.7h4.1v-6.3L146.6,63.9z"/><path fill="#FFFFFF" d="M171.4,97.8l-0.4-3.3h-0.2c-1.5,2.1-4.3,3.9-8.1,3.9c-5.4,0-8.1-3.8-8.1-7.6c0-6.4,5.7-9.9,15.9-9.8v-0.5 c0-2.2-0.6-6.1-6-6.1c-2.5,0-5,0.8-6.9,2l-1.1-3.2c2.2-1.4,5.4-2.3,8.7-2.3c8.1,0,10.1,5.5,10.1,10.8v9.9c0,2.3,0.1,4.5,0.4,6.3 H171.4z M170.7,84.4c-5.3-0.1-11.2,0.8-11.2,5.9c0,3.1,2.1,4.6,4.5,4.6c3.4,0,5.6-2.2,6.4-4.4c0.2-0.5,0.3-1,0.3-1.5V84.4z"/></g></g></a></g><a href="https://ourworldindata.org/grapher/global-smallpox-cases" target="_blank"><text font-size="25.20" x="15.0" y="35.2" fill="#555"><tspan x="15" y="35.160000000000004">Global number of reported smallpox cases (1920-2010)</tspan></text></a></g><g class="StackedArea"><defs><clipPath id="boundsClip-24"><rect x="78.968" y="0" width="820" height="973"></rect></clipPath></defs><g class="AxisBoxView"><g class="HorizontalAxis"><text x="79" y="556.5" fill="#666" text-anchor="middle" font-size="16.2">1920</text><text x="221.8" y="556.5" fill="#666" text-anchor="middle" font-size="16.2">1940</text><text x="364.7" y="556.5" fill="#666" text-anchor="middle" font-size="16.2">1960</text><text x="507.6" y="556.5" fill="#666" text-anchor="middle" font-size="16.2">1980</text><text x="650.5" y="556.5" fill="#666" text-anchor="middle" font-size="16.2">2000</text><text x="764.8" y="556.5" fill="#666" text-anchor="middle" font-size="16.2">2016</text></g><g class="VerticalAxis"><text x="73.97" y="535.3" fill="#666" dominant-baseline="middle" text-anchor="end" font-size="16.2">0</text><text x="73.97" y="461.8" fill="#666" dominant-baseline="middle" text-anchor="end" font-size="16.2">100,000</text><text x="73.97" y="388.3" fill="#666" dominant-baseline="middle" text-anchor="end" font-size="16.2">200,000</text><text x="73.97" y="314.7" fill="#666" dominant-baseline="middle" text-anchor="end" font-size="16.2">300,000</text><text x="73.97" y="241.2" fill="#666" dominant-baseline="middle" text-anchor="end" font-size="16.2">400,000</text><text x="73.97" y="167.7" fill="#666" dominant-baseline="middle" text-anchor="end" font-size="16.2">500,000</text><text x="73.97" y="94.2" fill="#666" dominant-baseline="middle" text-anchor="end" font-size="16.2">600,000</text></g><g class="AxisGridLines"><line x1="78.97" y1="535.3" x2="764.76" y2="535.3" stroke="#ccc"></line><line x1="78.97" y1="461.8" x2="764.76" y2="461.8" stroke="#ddd" stroke-dasharray="3,2"></line><line x1="78.97" y1="388.3" x2="764.76" y2="388.3" stroke="#ddd" stroke-dasharray="3,2"></line><line x1="78.97" y1="314.7" x2="764.76" y2="314.7" stroke="#ddd" stroke-dasharray="3,2"></line><line x1="78.97" y1="241.2" x2="764.76" y2="241.2" stroke="#ddd" stroke-dasharray="3,2"></line><line x1="78.97" y1="167.7" x2="764.76" y2="167.7" stroke="#ddd" stroke-dasharray="3,2"></line><line x1="78.97" y1="94.2" x2="764.76" y2="94.2" stroke="#ddd" stroke-dasharray="3,2"></line></g></g><g clip-path="url(#boundsClip-24)"><g class="HeightedLegend clickable"><g class="legendMark"><rect x="764.765" y="528.55" width="70.235" height="13.5" fill="#fff" opacity="0"></rect><text font-size="13.50" x="769.8" y="539.3" fill="rgb(0, 0, 4)"><tspan x="769.765" y="539.3499999999999">World</tspan></text></g></g><g class="Areas"><rect x="78.968" y="70" width="685.797" height="465.29999999999995" opacity="0" fill="rgba(255,255,255,0)"></rect><path stroke-linecap="round" d="M79 240.2L86.1 311.9L93.3 395.5L100.4 406.8L107.5 398.3L114.7 325.9L121.8 297L129 294.7L136.1 334.9L143.3 338.8L150.4 270.2L157.5 400.9L164.7 380L171.8 294L179 294.6L186.1 291.8L193.3 341.5L200.4 425.6L207.6 429.4L214.7 398.3L221.8 361.9L229 391.3L236.1 443.8L243.3 380.6L250.4 235.7L257.6 236.9L264.7 312.7L271.8 415.2L279 416.3L286.1 70L293.3 222.1L300.4 127.4L307.6 412.5L314.7 466.1L321.9 462.3L329 467.8L336.1 464.7L343.3 420.1L350.4 329.1L357.6 464.5L364.7 485.9L371.9 468.7L379 462.7L386.1 437.1L393.3 479.3L400.4 452.7L407.6 467.1L414.7 438.5L421.9 476.5L429 495.4L436.2 510.5L443.3 496.5L450.4 487.4L457.6 435.4L464.7 374.7L471.9 521.1L479 534.6L486.2 532.9L493.3 535.3L500.4 535.3L507.6 535.3L514.7 535.3L521.9 535.3L529 535.3L536.2 535.3L543.3 535.3L550.5 535.3L557.6 535.3L564.7 535.3L571.9 535.3L579 535.3L586.2 535.3L593.3 535.3L600.5 535.3L607.6 535.3L614.7 535.3L621.9 535.3L629 535.3L636.2 535.3L643.3 535.3L650.5 535.3L657.6 535.3L664.8 535.3L671.9 535.3L679 535.3L686.2 535.3L693.3 535.3L700.5 535.3L707.6 535.3L714.8 535.3L721.9 535.3L729 535.3L736.2 535.3L743.3 535.3L750.5 535.3L757.6 535.3L764.8 535.3L764.765 535.3L78.968 535.3" fill="rgb(0, 0, 4)" fill-opacity="0.7" class="World_0-area"></path><path stroke-linecap="round" d="M79 240.2L86.1 311.9L93.3 395.5L100.4 406.8L107.5 398.3L114.7 325.9L121.8 297L129 294.7L136.1 334.9L143.3 338.8L150.4 270.2L157.5 400.9L164.7 380L171.8 294L179 294.6L186.1 291.8L193.3 341.5L200.4 425.6L207.6 429.4L214.7 398.3L221.8 361.9L229 391.3L236.1 443.8L243.3 380.6L250.4 235.7L257.6 236.9L264.7 312.7L271.8 415.2L279 416.3L286.1 70L293.3 222.1L300.4 127.4L307.6 412.5L314.7 466.1L321.9 462.3L329 467.8L336.1 464.7L343.3 420.1L350.4 329.1L357.6 464.5L364.7 485.9L371.9 468.7L379 462.7L386.1 437.1L393.3 479.3L400.4 452.7L407.6 467.1L414.7 438.5L421.9 476.5L429 495.4L436.2 510.5L443.3 496.5L450.4 487.4L457.6 435.4L464.7 374.7L471.9 521.1L479 534.6L486.2 532.9L493.3 535.3L500.4 535.3L507.6 535.3L514.7 535.3L521.9 535.3L529 535.3L536.2 535.3L543.3 535.3L550.5 535.3L557.6 535.3L564.7 535.3L571.9 535.3L579 535.3L586.2 535.3L593.3 535.3L600.5 535.3L607.6 535.3L614.7 535.3L621.9 535.3L629 535.3L636.2 535.3L643.3 535.3L650.5 535.3L657.6 535.3L664.8 535.3L671.9 535.3L679 535.3L686.2 535.3L693.3 535.3L700.5 535.3L707.6 535.3L714.8 535.3L721.9 535.3L729 535.3L736.2 535.3L743.3 535.3L750.5 535.3L757.6 535.3L764.8 535.3" stroke="rgb(0, 0, 3)" stroke-opacity="0.7" stroke-width="0.5" fill="none" class="World_0-border"></path></g></g></g><g style="fill: #777;" class="SourcesFooter"><g style="fill: #777;" class="clickable"><text font-size="12.60" x="15.0" y="581.6"><tspan x="15" y="581.58">Source: World Health Organization (2011)</tspan></text></g><text font-size="12.60" x="775.4" y="581.6"><tspan x="775.402" y="581.58"><a style="fill: #777;" class="cclogo" href="http://creativecommons.org/licenses/by-sa/4.0/deed.en_US" target="_blank">CC BY-SA</a></tspan></text></g></g></svg>
